X: 11192
T: Dunmore Lasses, The
R: reel
M: 4/4
K: Eminor
~E3F ~G3A|Be~e2 Be~e2|~E3F ~G2BG|A2BA GEFD|
~E3F G2GA|Beed ~e3f|feed edBd|~A2BA GEFD|
~E3F G2GA|Be~e2 Be~e2|~E3F G2BG|~A2BA (3GBG FB|
EBEF ~G3A|Beed ~e3f|g2fd edBd|~A2BA ge~e2|
g2eg fedc|Be~e2 Be~e2|~g2eg fedB|AGBA ge~e2|
g2eg fedc|Beed ~e3f|g2fd edBd|~ A2BA ge~e2|
gfeg fedc|Be~e2 Be~e2|gfeg fedB|AGBA ge~e2|
g2eg fedc|Beed ~e3f|g2fd edBd|~ A2BA GEFD||A4||

